ksmif.org/public/images/icon/people.svg

<svg width="41" height="41" viewBox="0 0 41 41" fill="none" xmlns="http://www.w3.org/2000/svg">
<path d="M15.4292 18.2041C14.1119 16.8868 13.4532 15.3032 13.4532 13.4534C13.4532 11.6035 14.1119 10.0199 15.4292 8.70264C16.7465 7.38534 18.3301 6.72668 20.1799 6.72668C22.0297 6.72668 23.6133 7.38534 24.9306 8.70264C26.2479 10.0199 26.9066 11.6035 26.9066 13.4534C26.9066 15.3032 26.2479 16.8868 24.9306 18.2041C23.6133 19.5214 22.0297 20.18 20.1799 20.18C18.3301 20.18 16.7465 19.5214 15.4292 18.2041ZM6.72656 33.6334V28.9247C6.72656 27.9717 6.97181 27.0959 7.46229 26.2971C7.95278 25.4983 8.60442 24.8887 9.41723 24.4683C11.155 23.5994 12.9207 22.9478 14.7145 22.5133C16.5083 22.0789 18.3301 21.8617 20.1799 21.8617C22.0297 21.8617 23.8515 22.0789 25.6453 22.5133C27.4391 22.9478 29.2048 23.5994 30.9426 24.4683C31.7554 24.8887 32.407 25.4983 32.8975 26.2971C33.388 27.0959 33.6332 27.9717 33.6332 28.9247V33.6334H6.72656ZM10.0899 30.27H30.2699V28.9247C30.2699 28.6164 30.1928 28.3361 30.0387 28.0839C29.8845 27.8316 29.6813 27.6354 29.4291 27.4953C27.9156 26.7385 26.388 26.171 24.8465 25.7926C23.305 25.4142 21.7495 25.225 20.1799 25.225C18.6103 25.225 17.0548 25.4142 15.5133 25.7926C13.9717 26.171 12.4442 26.7385 10.9307 27.4953C10.6785 27.6354 10.4753 27.8316 10.3211 28.0839C10.167 28.3361 10.0899 28.6164 10.0899 28.9247V30.27ZM22.5553 15.8287C23.2139 15.1701 23.5432 14.3783 23.5432 13.4534C23.5432 12.5284 23.2139 11.7366 22.5553 11.078C21.8966 10.4193 21.1048 10.09 20.1799 10.09C19.255 10.09 18.4632 10.4193 17.8045 11.078C17.1459 11.7366 16.8166 12.5284 16.8166 13.4534C16.8166 14.3783 17.1459 15.1701 17.8045 15.8287C18.4632 16.4874 19.255 16.8167 20.1799 16.8167C21.1048 16.8167 21.8966 16.4874 22.5553 15.8287Z" fill="black"/>
</svg>

<svg xmlns="http://www.w3.org/2000/svg" width="41" height="41" fill="none"><path fill="#000" d="M15.43 18.204q-1.977-1.975-1.977-4.75t1.976-4.751q1.977-1.976 4.75-1.976 2.775 0 4.752 1.976t1.976 4.75q-.001 2.775-1.976 4.751-1.977 1.976-4.751 1.976t-4.75-1.976m-8.703 15.43v-4.71q0-1.428.735-2.627a4.9 4.9 0 0 1 1.955-1.829 25 25 0 0 1 5.297-1.955 23.1 23.1 0 0 1 5.466-.651q2.775 0 5.465.651a25 25 0 0 1 5.298 1.955 4.9 4.9 0 0 1 1.954 1.83q.736 1.197.736 2.627v4.708zm3.363-3.364h20.18v-1.345q0-.463-.231-.841a1.64 1.64 0 0 0-.61-.589 22 22 0 0 0-4.582-1.702 19.5 19.5 0 0 0-9.334 0q-2.312.567-4.582 1.702-.379.21-.61.589a1.6 1.6 0 0 0-.231.84zm12.465-14.441q.988-.988.988-2.376t-.988-2.375a3.24 3.24 0 0 0-2.375-.988q-1.388 0-2.375.988a3.24 3.24 0 0 0-.988 2.375q0 1.388.988 2.376.987.988 2.375.988t2.375-.988"/></svg>
